X: 645
T: Elâ Gözlerine Kurban Olduğum
C: Sadettin Kaynak
O: Turkey
F: http://compmusic.upf.edu/node/140
N: hicaz--turku--sofyan--ela_gozlerine--sadettin_kaynak
N: makam= hicaz
N: form= turku
N: usul= sofyan = 4/4
M: 4/4
L: 1/16
K: C _7/8B ^f ^c 
Q: 1/4=90
%%MIDI tuningsystem comma53
z2fg a2a2 aga2 aga2  | a=bg2 g2f2 ga=f2 f2e2  | 
w:   |   | 
{z}z2ef g2g2 gfg2 gfg2  | ga=f2 f2e2 fge2 e2d2  | 
w:   |   | 
{z}z2de =f2f2 fef2 fef2  | =fge2 e2d2 efd2 d2c2  | 
w:   |   | 
{z}z2dc d2=f2 e2d2 c2B2  | c2A2 B2G2 A2Bc defg  | \
w:   |   | 
a4 {z}f2g2 a3g a4  | 
w:  *  E lâ  göz *  le  | 
g2a6 a3g a3g  | a=bg2 g2f2 gaf2 f2e2  | \
w:  ri ne  kur *  ban   |  ol *  *  *  *  du *  ğum   | 
{z}z2fg a2a2 aga2 aga2  | 
w:  SAZ  | 
a=bg2 g2f2 gaf2 f2e2  | a4 {z}f2g2 a3g a4  | \
w:   |  *  E lâ  göz *  le  | 
g2a6 a3g a3g  | 
w:  ri ne  kur *  ban   | 
a=bg2 g2f2 gaf2 f2e2  | {z}z2fg a2a2 aga2 aga2  | 
w:  ol *  *  *  *  du *  ğum   |  SAZ  | 
a=bg2 g2f2 gaf2 f2e2  | {z}z4 a2b2 b2b4a2  | \
w:   |  İb ret_ i çin   | 
b2a4g2 a2gf g4  | 
w:  gel *  *  miş   | 
{z}f2g2 a2b2 a2g2 g2f2  | f6{z}ef gfef gfef  | \
w:  der *  ler  *  ci ha  |  ne   SAZ  | 
g4 {z}g2g2 g2=fg f2e2  | 
w:  *  Nok ta dır  *  *  ben  | 
e2de d2c2 B2BA B2A2  | {z}d2dc B2cd cBA6  | \
w:  le rin   |  sa ya *  *  *  *  ma *  dım   | 
A6{z}ef gfef gfef  | 
w:  ben   SAZ  | 
g4 {z}g2g2 g2=fg f2e2  | e2de d2c2 B2BA B2A2  | \
w:  *  Nok ta dır  *  *  ben  |  le rin   | 
{z}d2dc B2cd cBA6  | 
w:  sa ya *  *  *  *  ma *  dım   | 
A6{z}cd edcd edcd  | e4 {z}c2d2 e2e6  | \
w:  ben   SAZ  |  *  A ya ma dım   | 
=fed6 d2c6  | 
w:  ben   | 
BAB2 {z}c2d2 e2e6  | =fed6 d2c6  | g4 {z}g2g2 g2=fg f2e2  | \
w:  *  *  *  do ya ma dım    |  ben    |  *  Nok ta dır  *  *  ben  | 
e2de d2c2 B2BA B2A2  | 
w:  le rin   | 
{z}d2dc B2cd cBA6  | A6{z}ef gfef gfef  | \
w:  sa ya *  *  *  *  ma *  dım   |  ben   SAZ  | 
{z}g4 {z}g2g2 g2=fg f2e2  | 
w:  *  Nok ta dır  *  *  ben  | 
e2de d2c2 B2BA B2A2  | {z}d2dc B2cd cBA6  | \
w:  le rin   |  sa ya *  *  *  *  ma *  dım   | 
A12 z4  | 
w:  ben    | 
{z}z2fg a2a2 aga2 aga2  | a=bg2 g2f2 ga=f2 f2e2  | 
w:   |   | 
{z}z2ef g2g2 gfg2 gfg2  | ga=f2 f2e2 fge2 e2d2  | 
w:   |   | 
{z}z2de =f2f2 fef2 fef2  | =fge2 e2d2 efd2 d2c2  | 
w:   |   | 
{z}z2dc d2=f2 e2d2 c2B2  | c2A2 B2G2 A2Bc defg  | \
w:   |   | 
a4 {z}f2g2 a3g a4  | 
w:  *  E lâ  göz *  le  | 
g2a6 a3g a3g  | a=bg2 g2f2 gaf2 f2e2  | \
w:  ri ne  kur *  ban   |  ol *  *  *  *  du *  ğum   | 
{z}z2fg a2a2 aga2 aga2  | 
w:  SAZ  | 
a=bg2 g2f2 gaf2 f2e2  | a4 {z}f2g2 a3g a4  | \
w:   |  *  E lâ  göz *  le  | 
g2a6 a3g a3g  | 
w:  ri ne  kur *  ban   | 
a=bg2 g2f2 gaf2 f2e2  | {z}z2fg a2a2 aga2 aga2  | 
w:  ol *  *  *  *  du *  ğum   |  SAZ  | 
a=bg2 g2f2 gaf2 f2e2  | {z}z4 a2b2 b2b4a2  | \
w:   |  İb ret_ i çin   | 
b2a4g2 a2gf g4  | 
w:  gel *  *  miş   | 
{z}f2g2 a2b2 a2g2 g2f2  | f6{z}ef gfef gfef  | \
w:  der *  ler  *  ci ha  |  ne   SAZ  | 
g4 {z}g2g2 g2=fg f2e2  | 
w:  *  Nok ta dır  *  *  ben  | 
e2de d2c2 B2BA B2A2  | {z}d2dc B2cd cBA6  | \
w:  le rin   |  sa ya *  *  *  *  ma *  dım   | 
A6{z}ef gfef gfef  | 
w:  ben   SAZ  | 
g4 {z}g2g2 g2=fg f2e2  | e2de d2c2 B2BA B2A2  | \
w:  *  Nok ta dır  *  *  ben  |  le rin   | 
{z}d2dc B2cd cBA6  | 
w:  sa ya *  *  *  *  ma *  dım   | 
A6{z}cd edcd edcd  | e4 {z}c2d2 e2e6  | \
w:  ben   SAZ  |  *  A ya ma dım   | 
=fed6 d2c6  | 
w:  ben   | 
BAB2 {z}c2d2 e2e6  | =fed6 d2c6  | g4 {z}g2g2 g2=fg f2e2  | \
w:  *  *  *  do ya ma dım    |  ben    |  *  Nok ta dır  *  *  ben  | 
e2de d2c2 B2BA B2A2  | 
w:  le rin   | 
{z}d2dc B2cd cBA6  | A6{z}ef gfef gfef  | \
w:  sa ya *  *  *  *  ma *  dım   |  ben   SAZ  | 
{z}g4 {z}g2g2 g2=fg f2e2  | 
w:  *  Nok ta dır  *  *  ben  | 
e2de d2c2 B2BA B2A2  | {z}d2dc B2cd cBA6  | \
w:  le rin   |  sa ya *  *  *  *  ma *  dım   | 
A12 z4  | 
w:  ben    | 
|


